!!!COM: Palestrina, Giovanni Perluigi da
!!!OPR: Gabriel Archangelus
!!!OTL: Agnus I
**kern	**kern	**kern	**kern
*Ibass	*Itenor	*Icalto	*Icant
!Bassus	!Tenor	!Altus	!Cantus
*clefF4	*clefGv2	*clefG2	*clefG2
*k[b-]	*k[b-]	*k[b-]	*k[b-]
*D:aeo	*D:aeo	*D:aeo	*D:aeo
*M4/2	*M4/2	*M4/2	*M4/2
=1	=1	=1	=1
0r	0r	2.d	0dd
.	.	4e	.
.	.	2f	.
.	.	[2g	.
=2	=2	=2	=2
0r	0r	4g]	1g
.	.	4a	.
.	.	2.b-	.
.	.	.	[1dd
.	.	4a	.
.	.	2f	.
=3	=3	=3	=3
0r	1r	2g	2dd]
.	.	2a	2cc#
.	2r	2d	2.dd
.	[2G	[2g	.
.	.	.	4cc
=4	=4	=4	=4
0r	4G]	4g]	1b-
.	4A	4f	.
.	2B-	2d	.
.	2c	2e	1a
.	[2d	[2f	.
=5	=5	=5	=5
0r	4d]	4f]	[0a
.	4e	4e	.
.	2.f	4d	.
.	.	4c	.
.	.	2d	.
.	4e	.	.
.	2c	2e	.
=6	=6	=6	=6
2.D	2.d	2.f	1a]
4E	4c	4g	.
2F	2A	2a	1r
[2G	2B-	2d	.
=7	=7	=7	=7
4G]	2.G	2.g	0dd
4A	.	.	.
2.B-	.	.	.
.	4A	4f	.
.	4B-	2d	.
4A	4c	.	.
2F	[2d	2f	.
=8	=8	=8	=8
2G	2d]	1e	1ee
2A	2c#	.	.
1D	1d	2.d	[1ff
.	.	4e	.
=9	=9	=9	=9
0r	1r	2f	2ff]
.	.	2g	4ee
.	.	.	4dd
.	2.A	[1a	2ff
.	.	.	2ee
.	4B-	.	.
=10	=10	=10	=10
2.A	2.c	0a]	1ee
4B-	4d	.	.
2c	2e	.	1r
[2d	[2f	.	.
=11	=11	=11	=11
2d]	2f]	1r	2.a
4c	4e	.	.
4B-	4d	.	4b-
2A	2e	[1a	2cc
2D	[2f	.	[2dd
=12	=12	=12	=12
1D	4f]	1a]	4dd]
.	4e	.	4ee
.	2.d	.	2.ff
1r	.	1a	.
.	4c	.	4ee
.	2A	.	2cc
=13	=13	=13	=13
1r	2B-	1g	2dd
.	2c	.	2ee
2.D	[1d	2.f	1a
4E	.	4e	.
=14	=14	=14	=14
2F	0d]	2d	2.dd
1G	.	2.B-	.
.	.	.	4cc
.	.	.	2b-
.	.	4c	.
2F	.	[2d	2a
=15	=15	=15	=15
2G	1r	4d]	2b-
.	.	4e	.
2A	.	1f	1a
1B-	1d	.	.
.	.	4e	2g
.	.	4d	.
=16	=16	=16	=16
0A	1c	0e	0a
.	2A	.	.
.	2c	.	.
=17	=17	=17	=17
1r	2d	2f	0a
.	2e	2c	.
2r	1f	1d	.
2d	.	.	.
=18	=18	=18	=18
1c	2e	0A	0r
.	2.a	.	.
2A	.	.	.
.	4g	.	.
2c	2e	.	.
=19	=19	=19	=19
2B-	2f	0r	1dd
2G	2g	.	.
2.A	2e	.	1cc
.	2c	.	.
4G	.	.	.
=20	=20	=20	=20
1.F	2.f	0r	2a
.	.	.	2cc
.	4e	.	.
.	2d	.	2dd
2E	[2c	.	2ee
=21	=21	=21	=21
1D	2c]	1r	1ff
.	2B	.	.
1C	1c	1g	1ee
=22	=22	=22	=22
0D	1A	1f	2dd
.	.	.	1ff
.	1r	2d	.
.	.	2f	4ee
.	.	.	4dd
=23	=23	=23	=23
1C	1c	2g	1ee
.	.	2a	.
1G	1B-	[1b-	[1dd
=24	=24	=24	=24
2r	2G	1b-]	1dd]
2G	2B-	.	.
1F	1c	2a	1r
.	.	[2a	.
=25	=25	=25	=25
2D	1.d	4a]	0r
.	.	4g	.
2F	.	4a	.
.	.	4f	.
2G	.	2b-	.
2A	[2f	[2a	.
=26	=26	=26	=26
1B-	2f]	2a]	1dd
.	4e	2g	.
.	4d	.	.
1A	2e	[1a	1cc
.	2c	.	.
=27	=27	=27	=27
2r	2d	0a]	2a
2A	2e	.	2cc
2d	2f	.	2dd
2c	[2e	.	2ee
=28	=28	=28	=28
1d	4e]	1r	1ff
.	4d	.	.
.	1d	.	.
1A	.	1a	1ee
.	2c#	.	.
=29	=29	=29	=29
1.B-	1d	1f	1.dd
.	2B-	2d	.
2A	2c	2f	2cc
=30	=30	=30	=30
2G	2d	2g	2b-
2F	1f	2a	1dd
1G	.	[1b-	.
.	2e	.	4cc
.	.	.	4b-
=31	=31	=31	=31
0F	0f	2b-]	2dd
.	.	4a	2cc
.	.	4g	.
.	.	2a	2r
.	.	[2f	[2a
=32	=32	=32	=32
2r	1c	2f]	2a]
1c	.	4e	2g
.	.	4d	.
.	2r	2e	2a
2B-	[2f	2d	2b-
=33	=33	=33	=33
1c	2f]	1r	1g
.	2e	.	.
2A	1f	2r	1f
[2B-	.	[2d	.
=34	=34	=34	=34
2B-]	2d	2d]	0r
2A	2.e	2c#	.
2G	.	2d	.
.	4d	.	.
2F	[2d	2d	.
=35	=35	=35	=35
1E	2d]	1g	1r
.	2c#	.	.
2D	1d	2.f	2r
[2d	.	.	[2ff
.	.	4g	.
=36	=36	=36	=36
2d]	1A	1a	2ff]
2c#	.	.	2ee
1d	2r	2r	1ff
.	[2d	[2f	.
=37	=37	=37	=37
0r	2d]	2f]	2dd
.	2c#	2e	2.ee
.	1d	2f	.
.	.	.	4dd
.	.	2d	[2dd
=38	=38	=38	=38
1r	1A	1e	2dd]
.	.	.	2cc#
2r	1r	1d	2dd
[2d	.	.	[2ff
=39	=39	=39	=39
2d]	2r	1A	2ff]
2c#	1a	.	2ee
1d	.	2r	1ff
.	2f	2a	.
=40	=40	=40	=40
2B-	1g	2b-	2dd
1c	.	2.g	2.ee
.	2e	.	.
.	.	4a	4cc
2B-	[2f	2b-	2dd
=41	=41	=41	=41
1c	2f]	2a	1cc
.	2e	2g	.
2A	1f	2a	2r
[2B-	.	2f	[2dd
=42	=42	=42	=42
2B-]	2d	2g	2dd]
2A	2e	2a	2cc#
1B-	1d	2f	[1dd
.	.	2f	.
=43	=43	=43	=43
2G	1e	2g	2dd]
1A	.	2.e	2cc
.	2c	.	2a
.	.	4f	.
2G	[2d	2g	2b-
=44	=44	=44	=44
1A	2d]	2f	1.a
.	2c#	2e	.
2F	1d	2f	.
[2G	.	[2d	[2b-
=45	=45	=45	=45
2G]	2B-	4d]	2b-]
.	.	4e	.
2F	1c	2f	2a
1G	.	1d	1g
.	2B	.	.
=46	=46	=46	=46
2E	1c	2e	2g
1F	.	2A	2a
.	2A	[1a	2f
2D	[2d	.	[2ff
=47	=47	=47	=47
1A	2d]	1a]	2ff]
.	2c#	.	2ee
2D	2d	1a	1ff
[2d	[2f	.	.
=48	=48	=48	=48
2d]	2f]	2b-	2dd
2c#	2e	1a	2.ee
2d	2f	.	.
.	.	.	4dd
2B-	2d	2g	[2dd
=49	=49	=49	=49
0A	0e	[0a	2dd]
.	.	.	4cc
.	.	.	4b
.	.	.	1cc#
=50	=50	=50	=50
[0D	[0d	1a_	[0dd
.	.	1a_	.
=51	=51	=51	=51
0D]	0d]	0a]	0dd]
==	==	==	==
*-	*-	*-	*-
!!!CDT: 1525/^1526/-1594/2/2
!!!OCY: Italia
!!!AGN: Mass (Parody)
!!!AST: renaissance, vocal
!!!ASW: Motet 1532 (Verdelot)
!!!PWK: Masses, Book I
!!!RNB: Cadence finals: A,F
!!!YOR: Le Opere Complete, v. 1, p. 93
!!!YOO: Rome, Italy: Fratelli Scalera
!!!END: 1992//
!!!EED: John Miller
!!!YEC: Copyright 2000, John Miller
!!!YEN: United States of America
!!!YEM: Rights to all derivative electronic formats reserved.
!!!YEM: Refer to licensing agreement for further details.
!!!YEM: This file must be accompanied by the licensing agreement.
!!!YEM: A copy of the licensing agreement may be found at http://www.music-cog.ohio-state.edu/HumdrumDatabases/Palestrina/license.txt
!!!EMD: converted to Humdrum by Bret Aarden
